X:110
T:Good Christian Men, Rejoice
T:In Dulci Jubilo
C:14th Century, Harm. by de Pearsall
L:1/8
M:6/8
Q:1/8=220
P:BABABAB
V:S
%%MIDI program 1 19
V:A
%%MIDI program 2 60
V:T clef=treble_8 
%%MIDI program 3 57
%%score (S A) T
K:Dmaj
P:A
[V:S]
D | D2 D F2 G | (A2 B A2) A | D2 D F2 G |
(A2 B A3) | A2 B A2 G | F2 E D3 | E2 E F2 E |
D2 E F2 z | A2 B A2 G | F2 E D2 D | E2 E F2 E |
%
[V:A]
A, | B,2 A, (D3/2 C/2) B, | (A,2 D C2) D | B,2 A, (D3/2 C/2) B, |
(A,2 D C3) | D2 D C2 E | D2 C D3 | D2 D D2 C |
D2 D D2 z | D2 D C2 E | D2 C D2 D | D2 D D2 C |
%
w:1~Good Chris-tian friends,_ re-joice__ with heart and soul_ and voice;__ give ye heed to what we say: Je-sus Christ was born to-day. Ox and ass be-fore him bow, and he is in the 
w:2~Good Chris-tian friends,_ re-joice__ with heart and soul_ and voice;__ now ye hear of end-less bliss: Je-sus Christ was born for this! He has o-pened hea-ven's door, and we are blest for-
w:3~Good Chris-tian friends,_ re-joice__ with heart and soul_ and voice;__ now ye need not fear the grave: Je-sus Christ was born to save! Calls you one and calls you all to gain his e-ver-
%
[V:T]
F, | G,2 F, A,2 B, | (F,2 G, E,2) F, | G,2 F, A,2 B, |
(F,2 G, E,3) | A,2 G, F,2 C, | D,2 E, F,3 | B,2 B, (A,3/2 B,/2) G, |
F,2 G, A,2 z | A,2 G, E,2 C, | D,2 E, F,2 A, | B,2 B, (A,3/2 B,/2) G, |
P:B
[V:S]
D2 E F3 | B,2 B, C2 C | (D3 A3) | F2 F E2 E | D3 z2|]
%
[V:A]
D2 D D3 | B,2 B, B,2 ^A, | (B,3 C3) | D2 D D2 C | A,3 z2|]
%
w: man-ger now. Christ is born to-day!_ Christ is born to-day!
w: e-ver-more. Christ was born for this!_ Christ was born for this!
w: last-ing hall. Christ was born to save!_ Christ was born to save!
%
[V:T]
F,2 G, A,3 | F,2 F, E,2 E, | (F,2 G, E,3) | D,2 G, B,2 A, | F,3 z2|]

